public/assets/img/double-dark.svg

<svg width="24" height="24" viewBox="0 0 24 24" fill="none" xmlns="http://www.w3.org/2000/svg">
<path fill-rule="evenodd" clip-rule="evenodd" d="M14.2969 18.3438C17.5547 18.3438 20.2812 15.6172 20.2812 12.3594C20.2812 9.09375 17.5547 6.375 14.2891 6.375C13.4922 6.375 12.7266 6.54688 12.0312 6.85938C11.3125 6.54688 10.5156 6.375 9.69531 6.375C6.42969 6.375 3.71875 9.09375 3.71875 12.3594C3.71875 15.6172 6.4375 18.3438 9.70312 18.3438C10.5312 18.3438 11.3203 18.1641 12.0391 17.8516C12.7344 18.1641 13.4922 18.3438 14.2969 18.3438ZM14.2969 16.5547C14.1797 16.5547 14.0625 16.5469 13.9531 16.5391C15.0156 15.4531 15.6875 13.9688 15.6875 12.3594C15.6875 10.7422 15.0156 9.26562 13.9453 8.17969C14.0625 8.16406 14.1719 8.16406 14.2891 8.16406C16.5781 8.16406 18.4922 10.0859 18.4922 12.3594C18.4922 14.6328 16.5781 16.5547 14.2969 16.5547ZM5.50781 12.3594C5.50781 14.6328 7.42969 16.5547 9.70312 16.5547C11.9766 16.5547 13.8984 14.6328 13.8984 12.3594C13.8984 10.0859 11.9766 8.16406 9.69531 8.16406C7.42188 8.16406 5.50781 10.0859 5.50781 12.3594Z" fill="#E0E0FF" fill-opacity="0.8"/>
</svg>

<svg width="24" height="24" fill="none" xmlns="http://www.w3.org/2000/svg"><path fill-rule="evenodd" clip-rule="evenodd" d="M14.297 18.344c3.258 0 5.984-2.727 5.984-5.985 0-3.265-2.726-5.984-5.992-5.984a5.5 5.5 0 0 0-2.258.484 5.869 5.869 0 0 0-2.336-.484c-3.265 0-5.976 2.719-5.976 5.984 0 3.258 2.719 5.985 5.984 5.985.828 0 1.617-.18 2.336-.492a5.477 5.477 0 0 0 2.258.492Zm0-1.79c-.117 0-.235-.007-.344-.015 1.063-1.086 1.735-2.57 1.735-4.18 0-1.617-.672-3.093-1.743-4.18.117-.015.227-.015.344-.015 2.29 0 4.203 1.922 4.203 4.195 0 2.274-1.914 4.196-4.195 4.196Zm-8.79-4.195c0 2.274 1.923 4.196 4.196 4.196 2.274 0 4.195-1.922 4.195-4.196 0-2.273-1.921-4.195-4.203-4.195-2.273 0-4.187 1.922-4.187 4.195Z" fill="#E0E0FF" fill-opacity=".8"/></svg>
